X: 1
T: Sparrow Dance Clog
T: (as played by Tommy Doucet, ca.1945)
O: J.W.Pepper Col.
R: clog, hornpipe
S: Fiddle Hell Online 2021-05-26
Z: 2021 John Chambers <jc:trillian.mit.edu>
M: C|
L: 1/8
K: C
(3uef^f |\
g>ec>ud (3(edc) G>E | F>A vd2-d>(ued>c) | B-B/a/ g2 (3(ABc) (3(Bcd) | uc>ue g4 (3u(ef^f) |
g>ec>ud (3(edc) G>E | D>FA>^c d>ef>b | a>gf>d B>GF>D | C2 [_c2E2] [=c4E4] :|
|:\
(3(va^ga) (3(bag) a2 e2 | (3(fed) (3(cBA) ^G2 B2 | A>B v(3(cBA) uBuc (3(dcB) | uc>ud (3(edc) uB2 ue2 |
(3(va^ga) (3(bag) a2 e2 | (3(d^cd) (3(fed) =c2 B2 | (3(Ace) a2- a>E^F^G | A2"^o"a2 A4 :|
